X:1
T:Walzer Nr. 2 / Second Waltz
T:Walzer Nr. 2 / Second Waltz
T:Dmitri Schostakowitsch
T:Arr. by: Vanák Gábor 2017
C:Dmitri Schostakowitsch
%%score { ( 1 4 ) | 2 | 3 }
L:1/8
Q:1/4=178
M:3/4
K:F
V:1 treble nm="Orgona" snm="Org."
V:4 treble 
V:2 treble 
V:3 bass 
V:1
 z6 | z6 | z6 | z6 || A6 | F4 E2 | (D6 | D2) D2 E2 | F2 D2 F2 | A4 B2 | A6 | G6 | G6 | E4 D2 | %14
 (^C6 | C2) A,2 ^C2 | E2 ^C2 E2 | G2 A2 B2 | ^G6 | A6 | [Adf]6 | e4 d2 | c4 B2 | G6 | [Gce]6 | %25
 [EBd]4 c2 | [FAc]6 | z2 F2 [EG]2 | [DFA]2 AG AB | [DEG]2 GF GA | [DF]2 z2 [DFA]2 | %31
 z2 [DF]2 [EG]2 | [DFA]2 AG AB | [DEG]2 GF GA | [DF]2 z2 [DFA]2 | z2 [Fd]2 [Ge]2 | [Adf]2 fe fg | %37
 [A^ce]2 ed ef | (d6 | (d6) | (d6) |1 d6) :|2 (((([FAd]6 || [FAd]2)))) z2 [EBc]2 || [Acf]6 | %45
 [Acf]6 | [Af]2 [ce]2 [Bd]2 | [Ac]2 [FA]2 [Ac]2 | [Gce]6 | [Gce]6 | [Bd]2 [Ac]2 [FA]2 | %51
 [DF]2 [EG]2 [FA]2 | [^FAd]6 | [^FAc]6 | [Ac]2 [GB]2 [^FA]2 | G2 =F2 G2 | [FA]4 c2 | [EG]4 c2 | %58
 [FA]4 c2 | [Af]4"^a tempo" [cg]2"_rit." || [cfa]4 z2 | [cfa]4 z2 | [cfa]2 [eg]2 [df]2 | %63
 [ce]2 [Ac]2 [ce]2 | [ceg]4 z2 | [ceg]4 z2 | [eg]2 [df]2 [ce]2 | [Bd]2 [FA]2 [Ac]2 | [Af]6 | %69
 [Af]6 | [Bf]6 | [Bg]2 [Af]2 [Bg]2 | [ca]4 [Af]2 | [Ec]2 [Fd]2 [Ge]2 | [Ff]2 g2 f2 | %75
 [_e_e']2"_rit." [dd']2 [^c^c']2 |:"^a tempo" [bd']4 (((([df]2 | [df]2)))) [^ce]2 [df]2 | %78
 [bd']4 ([df-]2 | [df]2) [g_e']2 [fd']2 | [fad']4 [fac']2 | [fa=b]4 [fac']2 | [ac'g']4 [ac'f']2 | %83
 [g_e']2 [fd']2 [=e^c']2 | [bd']4 (((([df]2 | [df]2)))) [^ce]2 [df]2 | [bd']4 ((([df]2 | %87
 [df]2))) [_eg]2 [fa]2 | [gb]4 [ac']2 | [bd']4 [bd']2 | [c'=e']2 [bd']2 [c'e']2 |1 [af']4 _e'2 :|2 %92
 [af']g'"_rit." f'e' f'g' || !arpeggio![^c'^e'a']4 !fermata!=e'2 ||"^a tempo" d'4 z2 | z6 | z6 | %97
 z6 | A6 | F4 E2 | (D6 | D2) D2 E2 | F2 D2 F2 | A4 B2 | A6 | G6 | G6 | E4 D2 | (^C6 | C2) A,2 ^C2 | %110
 E2 ^C2 E2 | G2 A2 B2 | ^G6 | A6 | [Adf]6 | e4 d2 | c4 B2 | G6 | [Gce]6 | [EBd]4 c2 | [FAc]6 | %121
 z2 F2 [EG]2 | [DFA]2 AG AB | [DEG]2 GF GA | [DF]2 z2 [DFA]2 | z2 [DF]2 [EG]2 | [DFA]2 AG AB | %127
 [DEG]2 GF GA | [DF]2 z2 [DFA]2 | z2 [Fd]2 [Ge]2 | [Adf]2 fe fg | [A^ce]2 ed ef | d6 | %133
"_rit." z2 ^e2"^a tempo" =e2 || [Aa]6 | [Ff]4 [Ee]2 | [Dd]6 | [Dd]2 [Dd]2 [Ee]2 | [Ff]2 d2 [Ff]2 | %139
 [Aa]4 [Bb]2 | [Aa]6 | [Gg]6 | [Gg]6 | [Ee]4 [Dd]2 | (([^C^c]6 | [Cc]2)) A2 [^C^c]2 | %146
 [Ee]2 ^c2 [Ee]2 | [Gg]2 [Aa]2 [Bb]2 | [^G^g]6 | [Aa]6 | [Adf]6 | e4 d2 | c4 B2 | G6 | [Gce]6 | %155
 [EBd]4 c2 | [FAc]6 | z2 F2 [EG]2 | [DFA]2 AG AB | [DEG]2 GF GA | [DF]2 z2 [DFA]2 | %161
 z2 [DF]2 [EG]2 | [DFA]2 AG AB | [DEG]2 GF GA | [DF]2 z2 [DFA]2 | z2 [Fd]2 [Ge]2 | [Adf]2 fe fg | %167
 [A^ce]2 ed ef | [FAd]2 z2 [^cga]2 | [dfd']2 z2 z2 |] %170
V:2
 z2 [A,DF]2 [A,DF]2 | z2 [A,DF]2 [A,DF]2 | z2 [A,DF]2 [A,DF]2 | z2 [A,DF]2 [A,DF]2 || %4
 z2 [A,DF]2 [A,DF]2 | z2 [A,DF]2 [A,DF]2 | z2 [A,DF]2 [A,DF]2 | z2 [A,DF]2 [A,DF]2 | %8
 z2 [A,DF]2 [A,DF]2 | z2 [A,DF]2 [A,DF]2 | z2 [B,D]2 [B,D]2 | z2 [A,^C]2 [A,C]2 | %12
 z2 [B,D]2 [B,D]2 | z2 [B,D]2 [B,D]2 | z2 [G,A,]2 [G,A,]2 |[K:bass] z2 [E,G,]2 [E,G,]2 | %16
 z2 [G,A,]2 [G,A,]2 | z2 [G,^C]2 [G,C]2 | z2 [F,D]2 [F,D]2 | z2 [F,D]2 [F,D]2 | %20
 z2 [F,A,]2 [F,A,]2 | z2 [F,A,]2 [F,A,]2 | z2 [B,D]2 [B,D]2 | z2 [B,D]2 [B,D]2 | %24
 z2 [G,B,]2 [G,B,]2 | z2 [G,B,]2 [G,B,]2 | z2 [A,C]2 [A,C]2 | [B,D]2 z2 z2 | [A,,A,]4 z2 | %29
 [B,,B,]4 z2 | [A,,A,]4 z2 | [B,,B,]4 z2 | [A,,A,]4 z2 | [B,,B,]4 z2 | [A,,A,]4 z2 | [B,,B,]4 z2 | %36
 [A,,A,]4 z2 | [A,,A,]4 z2 | z2 [A,DF]2 [A,DF]2 | z2 [A,DF]2 [A,DF]2 | z2 [A,DF]2 [A,DF]2 |1 %41
 z2 [A,DF]2 [A,DF]2 :|2 D,2 A,2 F,2 || D,2 z2 C,2 || z2 [A,C]2 [A,C]2 | z2 [A,C]2 [A,C]2 | %46
 z2 [A,C]2 [A,C]2 | z2 [A,C]2 [A,C]2 | z2 [B,C]2 [B,C]2 | z2 [B,C]2 [B,C]2 | z2 [A,C]2 [A,C]2 | %51
 z2 [A,C]2 [A,C]2 | z2 [^F,C]2 [F,C]2 | z2 [^F,C]2 [F,C]2 | G,2 [B,D]2 D,2 | z2 [D,G,]2 [D,G,]2 | %56
 z2 [A,C]2 [A,C]2 | z2 [E,B,]2 [E,B,]2 | z2 [A,C]2 [A,C]2 | z2 [A,C]2 [A,C]2 || z2 [A,C]2 [A,C]2 | %61
 z2 [A,C]2 [A,C]2 | z2 [A,C]2 [A,C]2 | z2 [A,C]2 [A,C]2 | z2 [B,C]2 [B,C]2 | z2 [B,C]2 [B,C]2 | %66
 z2 [A,C]2 [A,C]2 | z2 [A,C]2 [A,C]2 | z2 [A,C]2 [A,C]2 | z2 [A,C]2 [A,C]2 | z2 [F,B,]2 [F,B,]2 | %71
 z2 [F,G,]2 [F,G,]2 | z2 [F,A,]2 [F,A,]2 | z2 [G,B,]2 [G,B,]2 | [F,A,]2 z2 z2 | [F,A,_E]6 |: %76
 z2 [DF]2 [DF]2 | z2 ([DF]2 [DF]2) | z2 [DF]2 [DF]2 | z2 [DF]2 [DF]2 | z2 [_EF]2 [EF]2 | %81
 z2 [_EF]2 [EF]2 | z2 [_EF]2 [EF]2 | z2 [_EF]2 [EF]2 | z2 [DF]2 [DF]2 | z2 ([DF]2 [DF]2) | %86
 z2 [DF]2 [DF]2 | z2 [DF]2 [DF]2 | z2 [G,B,]2 [G,B,]2 | z2 [G,B,]2 [G,B,]2 | z2 [=E,B,]2 [E,B,]2 |1 %91
 z2 [A,C]2 [A,C]2 :|2 z2 [A,C]2 [A,C]2 || z2 !fermata![^CG]4 || z2 [A,DF]2 [A,DF]2 | %95
 z2 [A,DF]2 [A,DF]2 | z2 [A,DF]2 [A,DF]2 | z2 [A,DF]2 [A,DF]2 | z2 [A,DF]2 [A,DF]2 | %99
 z2 [A,DF]2 [A,DF]2 | z2 [A,DF]2 [A,DF]2 | z2 [A,DF]2 [A,DF]2 | z2 [A,DF]2 [A,DF]2 | %103
 z2 [A,DF]2 [A,DF]2 | z2 [B,D]2 [B,D]2 | z2 [A,^C]2 [A,C]2 | z2 [B,D]2 [B,D]2 | z2 [B,D]2 [B,D]2 | %108
 z2 [G,A,]2 [G,A,]2 |[K:bass] z2 [E,G,]2 [E,G,]2 | z2 [G,A,]2 [G,A,]2 | z2 [G,^C]2 [G,C]2 | %112
 z2 [F,D]2 [F,D]2 | z2 [F,D]2 [F,D]2 | z2 [F,A,]2 [F,A,]2 | z2 [F,A,]2 [F,A,]2 | z2 [B,D]2 [B,D]2 | %117
 z2 [B,D]2 [B,D]2 | z2 [G,B,]2 [G,B,]2 | z2 [G,B,]2 [G,B,]2 | z2 [A,C]2 [A,C]2 | [B,D]2 z2 z2 | %122
 [A,,A,]4 z2 | [B,,B,]4 z2 | [A,,A,]4 z2 | [B,,B,]4 z2 | [A,,A,]4 z2 | [B,,B,]4 z2 | [A,,A,]4 z2 | %129
 [B,,B,]4 z2 | [A,,A,]4 z2 | [A,,A,]4 z2 | z2 [A,DF]2 [A,DF]2 | [A,,A,]6 || z2 [A,DF]2 [A,DF]2 | %135
 z2 [A,DF]2 [A,DF]2 | z2 [A,DF]2 [A,DF]2 | z2 [A,DF]2 [A,DF]2 | z2 [A,DF]2 [A,DF]2 | %139
 z2 [A,DF]2 [A,DF]2 | z2 [B,D]2 [B,D]2 | z2 [A,^C]2 [A,C]2 | z2 [B,D]2 [B,D]2 | %143
 z2 [G,B,]2 [G,B,]2 | z2 [G,A,]2 [G,A,]2 | z2 [E,G,]2 [E,G,]2 | z2 [G,A,]2 [G,A,]2 | %147
 z2 [G,A,]2 [G,A,]2 | z2 [F,A,]2 [F,A,]2 | z2 [F,A,]2 [F,A,]2 | z2 [F,A,]2 [F,A,]2 | %151
 z2 [F,A,]2 [F,A,]2 | z2 [B,D]2 [B,D]2 | z2 [B,D]2 [B,D]2 | z2 [G,B,]2 [G,B,]2 | %155
 z2 [G,B,]2 [G,B,]2 | z2 [A,C]2 [A,C]2 | [B,D]2 z2 z2 | [A,,A,]4 z2 | [B,,B,]4 z2 | [A,,A,]4 z2 | %161
 [B,,B,]4 z2 | [A,,A,]4 z2 | [B,,B,]4 z2 | [A,,A,]4 z2 | [B,,B,]4 z2 | [A,,A,]4 z2 | [A,,A,]4 z2 | %168
 D,2 z2 [A,,A,]2 | [F,A,]2 z2 z2 |] %170
V:3
 D,6 | A,,6 | D,6 | A,,6 || D,6 | A,,6 | D,6 | A,,6 | D,6 | A,,6 | E,6 | A,,6 | E,6 | A,,6 | E,6 | %15
 A,,6 | E,6 | A,,6 | D,6 | A,,6 | D,6 | A,,6 | G,6 | D,6 | C,6 | C,6 | F,6 | B,,2 z2 z2 | A,,4 z2 | %29
 B,,4 z2 | A,,4 z2 | B,,4 z2 | A,,4 z2 | B,,4 z2 | A,,4 z2 | B,,4 z2 | A,,4 z2 | A,,4 z2 | D,6 | %39
 A,,6 | D,6 |1 A,,6 :|2 D,4 z2 || D,2 z2 C,2 || F,6 | C,6 | F,6 | C,6 | G,6 | C,6 | F,6 | C,6 | %52
 D,6 | D,6 | G,,4 z2 | B,,6 | F,6 | C,6 | F,6 | C,6 || F,6 | C,6 | F,6 | C,6 | G,6 | C,6 | F,6 | %67
 C,6 | F,6 | _E,6 | D,6 | _D,6 | C,6 | C,6 | F,,2 z4 | F,,6 |: B,6 | F,6 | B,6 | F,6 | C6 | F,6 | %82
 C6 | F,6 | B,6 | F,6 | B,6 | F,6 | _E,6 | D,6 | C,6 |1 F,6 :|2 F,6 || A,6 || D,6 | A,,6 | D,6 | %97
 A,,6 | D,6 | A,,6 | D,6 | A,,6 | D,6 | A,,6 | E,6 | A,,6 | E,6 | A,,6 | E,6 | A,,6 | E,6 | A,,6 | %112
 D,6 | A,,6 | D,6 | A,,6 | G,6 | D,6 | C,6 | C,6 | F,6 | B,,2 z2 z2 | A,,4 z2 | B,,4 z2 | A,,4 z2 | %125
 B,,4 z2 | A,,4 z2 | B,,4 z2 | A,,4 z2 | B,,4 z2 | A,,4 z2 | A,,4 z2 | D,6 | A,,6 || D,6 | A,,6 | %136
 D,6 | A,,6 | D,6 | A,,6 | E,6 | A,,6 | E,6 | A,,6 | E,6 | A,,6 | E,6 | A,,6 | D,6 | A,,6 | D,6 | %151
 A,,6 | G,6 | D,6 | C,6 | C,6 | F,6 | B,,2 z2 z2 | A,,4 z2 | B,,4 z2 | A,,4 z2 | B,,4 z2 | %162
 A,,4 z2 | B,,4 z2 | A,,4 z2 | B,,4 z2 | A,,4 z2 | A,,4 z2 | D,2 z2 A,,2 | D,,2 z2 z2 |] %170
V:4
 x6 | x6 | x6 | x6 || x6 | x6 | x6 | x6 | x6 | x6 | x6 | x6 | x6 | x6 | x6 | x6 | x6 | x6 | x6 | %19
 x6 | x6 | [FA]6 | G6 | x6 | x6 | x6 | x6 | x6 | x6 | x6 | x6 | x6 | x6 | x6 | x6 | x6 | x6 | x6 | %38
 x6 | x6 | x6 |1 x6 :|2 x6 || x6 || x6 | x6 | x6 | x6 | x6 | x6 | x6 | x6 | x6 | x6 | x6 | x6 | %56
 x6 | x6 | x6 | x6 || x6 | x6 | x6 | x6 | x6 | x6 | x6 | x6 | x6 | x6 | x6 | x6 | x6 | x6 | x6 | %75
 x6 |: x6 | x6 | x6 | x6 | x6 | x6 | x6 | a4 a2 | x6 | x6 | x6 | x6 | x6 | x6 | x6 |1 x6 :|2 x6 || %93
 x6 || x6 | x6 | x6 | x6 | x6 | x6 | x6 | x6 | x6 | x6 | x6 | x6 | x6 | x6 | x6 | x6 | x6 | x6 | %112
 x6 | x6 | x6 | [FA]6 | G6 | x6 | x6 | x6 | x6 | x6 | x6 | x6 | x6 | x6 | x6 | x6 | x6 | x6 | x6 | %131
 x6 | x6 | z2 !arpeggio![A^ca]4 || x6 | x6 | x6 | x6 | x6 | x6 | x6 | x6 | x6 | x6 | x6 | x6 | x6 | %147
 x6 | x6 | x6 | x6 | [FA]6 | G6 | x6 | x6 | x6 | x6 | x6 | x6 | x6 | x6 | x6 | x6 | x6 | x6 | x6 | %166
 x6 | x6 | x6 | x6 |] %170

